X:1
T:Sunlight of His Love
T:Sunlight of His Love
T:J. M. Pierce
T:Charles E. Weldon, 1906
T:Public Domain Courtesy of the Cyber Hymnal™
T:Public Domain Courtesy of the Cyber Hymnal™
C:J. M. Pierce
Z:Public Domain
Z:Courtesy of the Cyber Hymnal™
%%score 1 ( 2 3 )
L:1/8
Q:1/4=98
M:4/4
K:Bb
V:1 treble 
V:2 bass 
V:3 bass 
V:1
 [DF]>[DF] [DF]>[EG] [DB]2 [DB]2 | [Fd]>[FB] [GB]>[EG] [DF]4 | [FB]>[FB] [FB]>[^Fc] [Gd]2 [A=f]2 | %3
w: 1.~Let the gold- en sun- light|In your heart if sad;|It will bring a bless- ing,|
w: 2.~Let the gold- en sun- shine|Spread its ray of light|On your path, if gloom- y,|
w: 3.~As you jour- ney on- ward,|Do some kind- ly deed;|God will guide and keep you,|
 [GB]>[GB] [=Ed]>[Ed] [Fc]4 | [DF]>[DF] [DF]>[EG] [DB]2 [DB]2 | [Fd]>[FB] [GB]>[EG] [DF]4 | %6
w: And will make you glad;|Je- sus, bless- èd Sav- ior,|Helps us con- quer sin;|
w: Sun- shine makes it bright;|Trust- ing in God’s prom- ise,|You a crown shall win;|
w: Sow- ing pre- cious seed;|In the gold- en har- vest,|There are souls to win,|
 [FB]>[FB] [FB]>[Fc] [Fd]<[Bf] [Bf]>[GB] | [Fd]2 [Fc]2 [FB]4 || %8
w: ||
w: Let the gold- en sun- light Of His|love shine in.|
w: ||
"^Refrain" [Fd]>[Fd] [Fd]>[Fd] [Fd]2 [Fc]2 | [FB]6 z2 | [Bf]>[Bf] [Bf]>[Bf] [FB]2 [Fd]2 | %11
w: |||
w: Let the gold- en sun- light|in,|Let the gold- en sun- light|
w: |||
 [Fc]6 z2 | [DF]>[DF] [DF]>[EG] [DB]2 [DB]2 | [Fd]>[FB] [GB]>[EG] [DF]4 | %14
w: |||
w: in;|Sing the joy- ful chor- us,|Je- sus saves from sin;|
w: |||
 [FB]>[FB] [FB]>[Fc] [Fd]<[Bf] [Bf]>[GB] | [Fd]2 [Fc]2 [FB]4 |] %16
w: ||
w: Let the gold- en sun- light Of His|love shine in.|
w: ||
V:2
 [B,,B,]>[B,,B,] [B,,B,]>[B,,B,] [B,,B,]2 [B,,B,]2 | [B,,B,]>[D,B,] [E,E]>[G,B,] B,4 | %2
w: |* * * * sun-|
 [B,D]>[B,D] [B,D]>[A,C] [G,B,]2 [D,D]2 | [G,D]>[G,D] [C,B,]>[C,B,] [F,A,]4 | %4
w: ||
 [B,,B,]>[B,,B,] [B,,B,]>[B,,B,] [B,,B,]2 [B,,B,]2 | [B,,B,]>[D,B,] [E,E]>[G,B,] B,4 | %6
w: |* * * * light|
 [B,,D]>[B,,D] [B,,D]>[B,,D] [B,,B,]<[B,,D] [D,B,]>[E,B,] | [F,B,]2 [F,E]2 [B,,D]4 || %8
w: ||
 [B,,B,]>[B,,B,] [B,,B,]>[B,,B,] [B,,B,]2 [B,,E]2 | [B,,D]2 [B,,D]2 [B,,D]2 z2 | %10
w: |in, sun- light|
 [B,,D]>[B,,D] [B,,D]>[B,,D] [D,B,]2 [B,,B,]2 | [F,A,]2 [F,A,]2 [F,A,]2 z2 | %12
w: |in, * *|
 [B,,B,]>[B,,B,] [B,,B,]>[B,,B,] [B,,B,]2 [B,,B,]2 | [B,,B,]>[D,B,] [E,E]>[G,B,] B,4 | %14
w: ||
 [B,,D]>[B,,D] [B,,D]>[B,,C] [B,,B,]<[B,,D] [D,B,]>[E,B,] | [F,B,]2 [F,E]2 [B,,D]4 |] %16
w: ||
V:3
 x8 | x4 B,4 | x8 | x8 | x8 | x4 B,4 | x8 | x8 || x8 | x8 | x8 | x8 | x8 | x4 B,4 | x8 | x8 |] %16

